icons/svg/image-album.svg

<svg xmlns="http://www.w3.org/2000/svg" version="1.1" baseProfile="full" width="24" height="24" viewBox="0 0 24.00 24.00" xml:space="preserve"><path fill="#000" fill-opacity="1" stroke-linejoin="round" d="M6 19l3-3.86 2.14 2.58 3-3.86L18 19H6zM6 4h5v8l-2.5-1.5L6 12M18 2H6c-1.1 0-2 .9-2 2v16c0 1.1.9 2 2 2h12c1.1 0 2-.9 2-2V4c0-1.1-.9-2-2-2z"/></svg>

﻿<?xml version="1.0" encoding="utf-8"?>
<!DOCTYPE svg PUBLIC "-//W3C//DTD SVG 1.1//EN" "http://www.w3.org/Graphics/SVG/1.1/DTD/svg11.dtd">
<svg xmlns="http://www.w3.org/2000/svg" xmlns:xlink="http://www.w3.org/1999/xlink" version="1.1" baseProfile="full" width="24" height="24" viewBox="0 0 24.00 24.00" enable-background="new 0 0 24.00 24.00" xml:space="preserve">
	<path fill="#000000" fill-opacity="1" stroke-linejoin="round" d="M 6,19L 9,15.14L 11.14,17.72L 14.14,13.86L 18,19L 6,19 Z M 6,4L 11,4L 11,12L 8.5,10.5L 6,12M 18,2L 6,2C 4.9,2 4,2.9 4,4L 4,20C 4,21.1 4.9,22 6,22L 18,22C 19.1,22 20,21.1 20,20L 20,4C 20,2.9 19.1,2 18,2 Z "/>
</svg>
